X: 17428
T: Highland Cradle Song
R: waltz
M: 3/4
K: Dmajor
A2d3e|f4g2|f6|e6|A2c3d|e4f2|ed3B2|A6|
A2d3e|f4g2|f6|e4a2|a2A3d|f4e2|d6-|d4a2|
a2g3B|B4g2|g2f3A|A4f2|f2e3G|G4e2|e2d3B|A4a2|
a2g3B|B4g2|g2f3A|A4f2|f2e3f|g2B3c|d6-|d4z2|

